Papirus/64x64/apps/cutemaze.svg

<?xml version="1.0" encoding="UTF-8" standalone="no"?>
<svg
   id="_图层_1"
   version="1.1"
   viewBox="0 0 64 64" width="64" height="64"
   sodipodi:docname="cutemaze.svg"
   xml:space="preserve"
   inkscape:version="1.4 (e7c3feb100, 2024-10-09)"
   xmlns:inkscape="http://www.inkscape.org/namespaces/inkscape"
   xmlns:sodipodi="http://sodipodi.sourceforge.net/DTD/sodipodi-0.dtd"
   xmlns:xlink="http://www.w3.org/1999/xlink"
   xmlns="http://www.w3.org/2000/svg"
   xmlns:svg="http://www.w3.org/2000/svg"><sodipodi:namedview
     id="namedview26"
     pagecolor="#505050"
     bordercolor="#eeeeee"
     borderopacity="1"
     inkscape:showpageshadow="0"
     inkscape:pageopacity="0"
     inkscape:pagecheckerboard="0"
     inkscape:deskcolor="#505050"
     inkscape:zoom="10.6875"
     inkscape:cx="32"
     inkscape:cy="46.877193"
     inkscape:window-width="1920"
     inkscape:window-height="939"
     inkscape:window-x="0"
     inkscape:window-y="34"
     inkscape:window-maximized="1"
     inkscape:current-layer="_图层_1" /><!-- Generator: Adobe Illustrator 29.0.1, SVG Export Plug-In . SVG Version: 2.1.0 Build 192)  --><defs
     id="defs6"><style
       id="style1">
      .st0 {
        fill-opacity: .5;
      }

      .st0, .st1, .st2, .st3, .st4, .st5, .st6, .st7 {
        fill: #fff;
      }

      .st8 {
        fill: #133c9a;
      }

      .st2, .st9 {
        display: none;
      }

      .st3 {
        fill-opacity: .2;
      }

      .st4 {
        fill-opacity: .9;
      }

      .st10 {
        fill: #3370ff;
      }

      .st11 {
        fill: url(#_未命名的渐变_3);
      }

      .st12 {
        fill: url(#_未命名的渐变);
      }

      .st5 {
        fill-opacity: .3;
      }

      .st6 {
        fill-opacity: 0;
      }

      .st7 {
        fill-opacity: .7;
      }

      .st13 {
        fill: #00d6b9;
      }

      .st14 {
        fill: url(#_未命名的渐变_2);
      }
    </style><radialGradient
       id="_未命名的渐变"
       data-name="未命名的渐变"
       cx="123.9"
       cy="-40.2"
       fx="123.9"
       fy="-40.2"
       r="59.4"
       gradientTransform="translate(-26.8 25.5) scale(.6 -.7)"
       gradientUnits="userSpaceOnUse"><stop
         offset="0"
         stop-color="#db202e"
         id="stop1" /><stop
         offset="1"
         stop-color="#e01b24"
         id="stop2" /></radialGradient><radialGradient
       id="_未命名的渐变_2"
       data-name="未命名的渐变 2"
       cx="67.6"
       cy="26.8"
       fx="67.6"
       fy="26.8"
       r="105.2"
       gradientTransform="translate(-26.6 25.3) scale(.6 -.7)"
       gradientUnits="userSpaceOnUse"><stop
         offset="0"
         stop-color="#ffb648"
         id="stop3" /><stop
         offset="1"
         stop-color="#ff7800"
         stop-opacity="0"
         id="stop4" /></radialGradient><radialGradient
       id="_未命名的渐变_3"
       data-name="未命名的渐变 3"
       cx="61.7"
       cy="18.6"
       fx="61.7"
       fy="18.6"
       r="68"
       gradientTransform="matrix(0.6,0,0,-0.7,-26.8,25.8)"
       gradientUnits="userSpaceOnUse"><stop
         offset="0"
         stop-color="#c64600"
         id="stop5" /><stop
         offset="1"
         stop-color="#a51d2d"
         id="stop6" /></radialGradient><linearGradient
       id="linearGradient1261"><stop
         style="stop-color:#4f4f4f"
         offset="0"
         id="stop1-7" /><stop
         style="stop-color:#3f3f3f"
         offset="1"
         id="stop2-0" /></linearGradient><linearGradient
       id="linearGradient1263"
       x1="34.241"
       x2="37.169"
       y1="38.945"
       y2="30.342"
       gradientTransform="matrix(1.3919157,0,0,1.3888889,-1.321022,-0.4865665)"
       gradientUnits="userSpaceOnUse"
       xlink:href="#linearGradient1261" /><style
       id="style1-7">
      .st0 {
        fill-opacity: .5;
      }

      .st0, .st1, .st2, .st3, .st4, .st5, .st6, .st7 {
        fill: #fff;
      }

      .st8 {
        fill: #133c9a;
      }

      .st2, .st9 {
        display: none;
      }

      .st3 {
        fill-opacity: .2;
      }

      .st4 {
        fill-opacity: .9;
      }

      .st10 {
        fill: #3370ff;
      }

      .st11 {
        fill: url(#_未命名的渐变_3);
      }

      .st12 {
        fill: url(#_未命名的渐变);
      }

      .st5 {
        fill-opacity: .3;
      }

      .st6 {
        fill-opacity: 0;
      }

      .st7 {
        fill-opacity: .7;
      }

      .st13 {
        fill: #00d6b9;
      }

      .st14 {
        fill: url(#_未命名的渐变_2);
      }
    </style><radialGradient
       id="_未命名的渐变-8"
       data-name="未命名的渐变"
       cx="123.9"
       cy="-40.2"
       fx="123.9"
       fy="-40.2"
       r="59.4"
       gradientTransform="translate(-26.8 25.5) scale(.6 -.7)"
       gradientUnits="userSpaceOnUse"><stop
         offset="0"
         stop-color="#db202e"
         id="stop1-4" /><stop
         offset="1"
         stop-color="#e01b24"
         id="stop2-5" /></radialGradient><radialGradient
       id="_未命名的渐变_2-0"
       data-name="未命名的渐变 2"
       cx="67.6"
       cy="26.8"
       fx="67.6"
       fy="26.8"
       r="105.2"
       gradientTransform="translate(-26.6 25.3) scale(.6 -.7)"
       gradientUnits="userSpaceOnUse"><stop
         offset="0"
         stop-color="#ffb648"
         id="stop3-3" /><stop
         offset="1"
         stop-color="#ff7800"
         stop-opacity="0"
         id="stop4-6" /></radialGradient><radialGradient
       id="_未命名的渐变_3-1"
       data-name="未命名的渐变 3"
       cx="61.7"
       cy="18.6"
       fx="61.7"
       fy="18.6"
       r="68"
       gradientTransform="translate(-26.8 25.8) scale(.6 -.7)"
       gradientUnits="userSpaceOnUse"><stop
         offset="0"
         stop-color="#c64600"
         id="stop5-0" /><stop
         offset="1"
         stop-color="#a51d2d"
         id="stop6-6" /></radialGradient><style
       id="style1-6">
      .st0 {
        fill: #b0aca9;
      }

      .st0, .st1, .st2, .st3, .st4, .st5, .st6, .st7 {
        display: none;
      }

      .st8 {
        fill: #4f4f4f;
      }

      .st9 {
        fill: #2a4d9b;
      }

      .st10 {
        fill: #d29ab8;
      }

      .st1, .st11, .st12, .st5, .st13, .st14, .st7, .st15 {
        isolation: isolate;
      }

      .st1, .st11, .st5, .st13, .st14, .st7 {
        opacity: .2;
      }

      .st16 {
        fill: #a95b86;
      }

      .st2 {
        fill: #009587;
      }

      .st11, .st17, .st5 {
        fill-rule: evenodd;
      }

      .st18, .st17, .st4, .st14, .st7, .st15 {
        fill: #fff;
      }

      .st3 {
        fill: #8561c5;
      }

      .st19 {
        fill: #2f2f2f;
      }

      .st20 {
        fill: #e74185;
      }

      .st21 {
        fill: none;
        stroke: #ff631b;
        stroke-linecap: round;
        stroke-linejoin: round;
        stroke-width: 5.1px;
      }

      .st22 {
        fill: #d8d8d8;
      }

      .st12, .st15 {
        opacity: .1;
      }

      .st23 {
        fill: #ff631b;
      }

      .st24 {
        fill: #57779f;
      }

      .st25 {
        fill: #1554d4;
      }

      .st26 {
        fill: #765ffc;
      }

      .st27 {
        fill: #1e298c;
      }

      .st28 {
        fill: #c03630;
      }

      .st29 {
        fill: #ffc500;
      }

      .st30 {
        fill: #73a0d6;
      }

      .st31 {
        fill: #277f8d;
      }
    </style></defs><path
     class="st18"
     d="M 58.196208,74.037384 H 10.414439 c -9.94908133,0 -18.0654366,-8.175728 -18.0654366,-18.065721 V 7.7084866 c 0,-9.889993 8.11635527,-18.0657216 17.9345266,-18.0657216 h 47.781769 c 9.818172,0 17.934528,8.1757286 17.934528,18.0657216 V 55.971663 c 0,9.889993 -8.116356,18.065721 -17.934528,18.065721 v 0 z"
     id="path1"
     style="stroke-width:1.31386;fill:#e4e4e4;opacity:1;fill-opacity:1"
     transform="matrix(0.76500823,0,0,0.7572335,5.9030766,7.9364123)" /><g
     id="g28"
     transform="matrix(1.1198317,0,0,1.1258318,-3.2279163,-3.3891914)"><path
       style="fill:#239623"
       d="M 9.8328905,4.2466416 10,36 H 3 v 6 H 23 V 54 H 5.0888686 l 1.5875402,2.485124 C 7.5277162,57.817755 12.54302,60 14.12192,60 H 49.083555 L 54.749336,57.922264 55,27 h 5 V 21 H 49 v 6 27 H 29 V 42 36 H 16 V 3 Z M 23,3 v 26 h 6 7 v 18.175 h 6 V 14 H 60 L 57.911131,8 H 36 v 6 9 H 29 V 3 Z"
       id="path3"
       sodipodi:nodetypes="cccccccssccccccccccccccccccccccccccccc" /><path
       style="opacity:0.2"
       d="m 10,3 v 1 h 6 V 3 Z m 13,0 v 1 h 6 V 3 Z m 13,5 v 1 l 21.827577,0.083109 -0.417774,-1.1662188 z m 13,13 v 1 h 11 v -1 z m -20,2 v 1 h 7 V 23 Z M 3,36 v 1 h 7 v -1 z m 13,0 v 1 h 13 v -1 z m -10.6604672,18.332438 0.5013285,1 L 23,55 V 54 Z M 29,54 v 1 h 20 v -1 z"
       id="path4"
       sodipodi:nodetypes="ccccccccccccccccccccccccccccccccccccccccccccc" /></g></svg>

<svg xmlns="http://www.w3.org/2000/svg" width="64" height="64" version="1">
 <path style="opacity:0.2" d="M 5.8496094,4 C 4.2707094,4 3,5.2707094 3,6.8496094 V 37 v 6 12 0.517578 2.632813 C 3,59.729291 4.2707094,61 5.8496094,61 H 49 53.927734 55 57.150391 C 58.729291,61 60,59.729291 60,58.150391 V 28 22 15 9 6.8496094 C 60,5.2707094 58.729291,4 57.150391,4 H 29 23 16 10 Z"/>
 <path style="fill:#e4e4e4" d="M 60,57.15 V 5.85 C 60,4.2711 58.7289,3 57.15,3 H 5.85 C 4.2711,3 3,4.2711 3,5.85 v 48.667908 l 1.4336016,2.703772 c 0.7396313,1.394944 0.1965414,1.371355 1.7747989,1.416399 L 52.250368,58.575 54.727632,60 H 57.15 C 58.7289,60 60,58.7289 60,57.15 Z"/>
 <path style="fill:#239623" d="M 10,3 V 36 H 3 v 6 H 23 V 54 H 3 v 3.15 C 3,58.7289 4.2711,60 5.85,60 H 49 55 V 27 h 5 V 21 H 49 v 6 27 H 29 V 42 36 H 16 V 3 Z m 13,0 v 26 h 6 7 v 18.175 h 6 V 14 H 60 V 8 H 36 v 6 9 H 29 V 3 Z"/>
 <path style="opacity:0.2" d="M 10 3 L 10 4 L 16 4 L 16 3 L 10 3 z M 23 3 L 23 4 L 29 4 L 29 3 L 23 3 z M 36 8 L 36 9 L 60 9 L 60 8 L 36 8 z M 49 21 L 49 22 L 60 22 L 60 21 L 49 21 z M 29 23 L 29 24 L 36 24 L 36 23 L 29 23 z M 3 36 L 3 37 L 10 37 L 10 36 L 3 36 z M 16 36 L 16 37 L 29 37 L 29 36 L 16 36 z M 3 54 L 3 55 L 23 55 L 23 54 L 3 54 z M 29 54 L 29 55 L 49 55 L 49 54 L 29 54 z"/>
 <path style="fill:#ffffff;opacity:0.2" d="M 5.8496094 3 C 4.2707094 3 3 4.2707094 3 5.8496094 L 3 6.8496094 C 3 5.2707094 4.2707094 4 5.8496094 4 L 10 4 L 10 3 L 5.8496094 3 z M 16 3 L 16 4 L 23 4 L 23 3 L 16 3 z M 29 3 L 29 4 L 57.150391 4 C 58.729291 4 60 5.2707094 60 6.8496094 L 60 5.8496094 C 60 4.2707094 58.729291 3 57.150391 3 L 29 3 z"/>
</svg>
